X:1
T:Title
%%score { ( 1 4 5 ) | ( 2 3 ) }
L:1/8
Q:1/4=100
M:4/4
K:Eb
V:1 treble nm="Grand Piano"
V:4 treble 
V:5 treble 
V:2 bass 
V:3 bass 
V:1
 [GB]2 [GB]c [GB]AGA | z4 [Ge]4 | [ce]4 z4 | [GB]4 z2 .B2 | [DAB]4[K:bass][K:treble] z2 .B2 | %5
w: H.~W.~Petrie * * * * * *|||||
 [EGB]4[K:bass][K:treble] z4 | [CEF]2 [CE_G]2 [CE=G]2 [E_G=A]2 | [DFB]2 (3:2:2B B2 B2 .B2 | B4 B4 | %9
w: ||||
 [DAB]>c B>A [_D=E]2 F2 | c4 c4 | [Gd]>e d>c [EG]2 B2 | e4 d4 | [EGc]2 [_DGB]2 [CFA]2 [C=EG]2 | %14
w: |||||
 c4 F4 | [B,D]2 (3BBB .B2 .B2 | B4 B4 | [DAB]>c B>A [_D=E]2 F2 | c4 c4 | [Gd]>e d>c [EG]2 [GB]2 | %20
w: ||||||
 [Gce]2 [F=Bd]2 [EAc]2 [_DG_B]2 |[M:9/8] [CFA]2 [C=EG]- [CEG] [CF]2 [_E_Gc]3 | %22
w: ||
[M:4/4] [EGB]4 [ABf]4 | [GBe]6 z2 |] %24
w: ||
V:2
 [E,,E,]2 z A z FEF | [E,,E,]2 [B,,B,]2 [G,,G,]2 E,,2 | A,,2 z[K:treble] c[K:bass] A,,2 [E,A,C]2 | %3
 E,,2 E,>E, E,2 [E,,E,]2 | [F,,F,]2 z D [F,,F,]2 [B,,,B,,]2 | [E,,E,]2 z E [C,,C,]2 [C,E,G,]2 | %6
 [=A,,=A,]2 [_A,,_A,]2 [G,,G,]2 [F,,F,]2 | [B,,,B,,]2 (3B,B,B, .B,2 .B,2 | z2 E2 z2 _D2 | %9
 z2[K:treble] [A,B,D]2[K:bass] z4 | z2 F2 z2 F2 | [E,,E,]2 [G,B,EG]2 [E,,E,]2 [G,B,EG]2 | %12
 z2 G2 z2 F2 | [E,,E,]2 [=E,,=E,]2 [F,,F,]2 [G,,G,]2 | z2 E2 z2 [=A,C]2 | %15
 [B,,,B,,]2 [C,,C,]2 .[D,,D,]2 .[B,,,B,,]2 | z2 E2 z2 _D2 | z2[K:treble] [A,B,D]2[K:bass] z4 | %18
 z2 F2 z2 F2 | [E,,E,]2 [G,B,EG]2 [E,,E,]2 [G,B,E]2 | [C,,C,]2 [D,,D,]2 [E,,E,]2 [=E,,=E,]2 | %21
[M:9/8] [F,,F,]2 [G,,G,]- [G,,G,] [A,,A,]2 [=A,,=A,]3 |[M:4/4] [B,,B,]4 [B,,,B,,]4 | %23
 [E,,E,]2 B,,2 E,,2 z2 |] %24
V:3
 z2 [E,G,B,]2 E,,2 [E,G,B,]2 | x8 | z2 E,2[K:treble][K:bass] z4 | x8 | z2 B,,,2 z4 | z2 B,,,2 z4 | %6
 x8 | x8 | [E,,E,]4 [=E,,=E,]4 | [F,,F,]2[K:treble] G>F[K:bass] B,,2 [A,B,D]2 | %10
 [F,,F,]4 [B,,,B,,]4 | x8 | [C,,C,]4 [D,,D,]4 | x8 | [=A,,=A,]4 [F,,F,]4 | x8 | %16
 [E,,E,]4 [=E,,=E,]4 | [F,,F,]2[K:treble] G>F[K:bass] B,,2 [A,B,D]2 | [F,,F,]4 [B,,,B,,]4 | x8 | %20
 x8 |[M:9/8] x9 |[M:4/4] x8 | x8 |] %24
V:4
 x8 | [GB]2 [Ge]2 z2 E,2 | z2 z e [Bd]2 [Ac]2 | z2 [G,B,]>[G,B,] [G,B,EG]2 [EG]-[EGc] | %4
 z2[K:bass] z[K:treble] A [DF]2 [DA]-[DAc] | z2[K:bass] z[K:treble] G [CE]2 [CEG]2 | x8 | x8 | %8
 z2 G2 z2 G2 | x8 | z2 A2 z2 A2 | x8 | z2 c2 z2 =B2 | x8 | z2 F2 z2 E2 | F6 z2 | z2 G2 z2 G2 | x8 | %18
 z2 A2 z2 A2 | x8 | x8 |[M:9/8] x9 |[M:4/4] x8 | x8 |] %24
V:5
 x8 | x8 | z2 [A,C]2 z4 | x8 | z2[K:bass] B,,2[K:treble] z4 | z2[K:bass] B,,2[K:treble] z4 | x8 | %7
 x8 | x8 | x8 | x8 | x8 | x8 | x8 | x8 | x8 | x8 | x8 | x8 | x8 | x8 |[M:9/8] x9 |[M:4/4] x8 | %23
 x8 |] %24

